public/img/pattern-planet.svg

<svg fill="none" height="100" viewBox="0 0 390 100" width="390" xmlns="http://www.w3.org/2000/svg"><path clip-rule="evenodd" d="m184.804 6c-2.176.55259-2.502 1-2.902 4-.4-3-.726-3.44741-2.902-4 2.176-.55259 2.502-1 2.902-4 .402 3 .726 3.44741 2.902 4zm99 22c.8-6 1.452-6.8948 5.805-8-4.353-1.1052-5.002-2-5.805-8-.8 6-1.451 6.8948-5.804 8 4.353 1.1052 5.004 2 5.804 8zm74.452 8c1-7.5 1.814-8.6185 7.255-10-5.441-1.3815-6.252-2.5-7.255-10-1 7.5-1.815 8.6185-7.256 10 5.441 1.3815 6.256 2.5 7.256 10zm-316.0004 10c1-7.5 1.8148-8.6185 7.2555-10-5.4407-1.3815-6.2518-2.5-7.2555-10-1 7.5-1.8149 8.6185-7.2556 10 5.4407 1.3815 6.2556 2.5 7.2556 10zm216.1574-8c-6.529 1.6578-7.506 3-8.706 12-1.2-9-2.178-10.3422-8.707-12 6.529-1.6578 7.507-3 8.707-12 1.204 9 2.177 10.3422 8.706 12zm-151 29c-6.529 1.6578-7.5063 3-8.7063 12-1.2-9-2.1778-10.3422-8.7067-12 6.5289-1.6578 7.5067-3 8.7067-12 1.2044 9 2.1773 10.3422 8.7063 12zm218.098 10c-5.441 1.3815-6.255 2.5-7.255 10-1-7.5-1.815-8.6185-7.256-10 5.441-1.3815 6.256-2.5 7.256-10 1.003 7.5 1.814 8.6185 7.255 10zm-131-12c-5.441 1.3815-6.255 2.5-7.255 10-1-7.5-1.815-8.6185-7.256-10 5.441-1.3815 6.256-2.5 7.256-10 1.003 7.5 1.814 8.6185 7.255 10zm-165.7066 14c.8-6 1.4519-6.8948 5.8045-8-4.3526-1.1052-5.0015-2-5.8045-8-.8 6-1.4518 6.8948-5.8044 8 4.3526 1.1052 5.0044 2 5.8044 8zm56.8045-55c-4.3526 1.1052-5.0045 2-5.8045 8-.8-6-1.4518-6.8948-5.8044-8 4.3526-1.1052 5.0044-2 5.8044-8 .803 6 1.4519 6.8948 5.8045 8zm37.1951 69c.8-6 1.452-6.8948 5.805-8-4.353-1.1052-5.002-2-5.805-8-.8 6-1.451 6.8948-5.804 8 4.353 1.1052 5.004 2 5.804 8zm44.805-46c-4.353 1.1052-5.005 2-5.805 8-.8-6-1.451-6.8948-5.804-8 4.353-1.1052 5.004-2 5.804-8 .803 6 1.452 6.8948 5.805 8zm112.195 48c.8-6 1.452-6.8948 5.805-8-4.353-1.1052-5.002-2-5.805-8-.8 6-1.451 6.8948-5.804 8 4.353 1.1052 5.004 2 5.804 8zm60.805-45c-4.353 1.1052-5.005 2-5.805 8-.8-6-1.451-6.8948-5.804-8 4.353-1.1052 5.004-2 5.804-8 .803 6 1.452 6.8948 5.805 8zm-322.8046 0c-2.1763.5526-2.5022 1-2.9022 4-.4-3-.7259-3.4474-2.9022-4 2.1763-.5526 2.5022-1 2.9022-4 .4015 3 .7259 3.4474 2.9022 4zm279.0976 23c.4-3 .726-3.4474 2.902-4-2.176-.5526-2.5-1-2.902-4-.4 3-.726 3.4474-2.902 4 2.176.5526 2.502 1 2.902 4zm-168-11c.4-3 .726-3.4474 2.902-4-2.176-.5526-2.5-1-2.902-4-.4 3-.726 3.4474-2.902 4 2.176.5526 2.502 1 2.902 4zm79.902-40c-2.176.5526-2.502 1-2.902 4-.4-3-.726-3.4474-2.902-4 2.176-.5526 2.502-1 2.902-4 .402 3 .726 3.4474 2.902 4zm32.098 57c.4-3 .726-3.4474 2.902-4-2.176-.5526-2.5-1-2.902-4-.4 3-.726 3.4474-2.902 4 2.176.5526 2.502 1 2.902 4zm122.902 2c-2.176.5526-2.502 1-2.902 4-.4-3-.726-3.4474-2.902-4 2.176-.5526 2.502-1 2.902-4 .402 3 .726 3.4474 2.902 4zm-34.902-69c.4-3 .726-3.44741 2.902-4-2.176-.55259-2.5-1-2.902-4-.4 3-.726 3.44741-2.902 4 2.176.55259 2.502 1 2.902 4zm57.902 49c-2.176.5526-2.502 1-2.902 4-.4-3-.726-3.4474-2.902-4 2.176-.5526 2.502-1 2.902-4 .402 3 .726 3.4474 2.902 4zm-374.804 25c.5523 0 1-.4477 1-1s-.4477-1-1-1-1 .4477-1 1 .4477 1 1 1zm19-70c0 .5523-.4477 1-1 1s-1-.4477-1-1 .4477-1 1-1 1 .4477 1 1zm77 32c.552 0 1-.4477 1-1s-.448-1-1-1-1 .4477-1 1 .448 1 1 1zm-13-7c0 .5523-.4477 1-1 1s-1-.4477-1-1 .4477-1 1-1 1 .4477 1 1zm115 8c.552 0 1-.4477 1-1s-.448-1-1-1-1 .4477-1 1 .448 1 1 1zm-57-27c0 .5523-.448 1-1 1s-1-.4477-1-1 .448-1 1-1 1 .4477 1 1zm141 24c.552 0 1-.4477 1-1s-.448-1-1-1-1 .4477-1 1 .448 1 1 1zm87-5c0 .5523-.448 1-1 1s-1-.4477-1-1 .448-1 1-1 1 .4477 1 1zm-201 52c.552 0 1-.4477 1-1s-.448-1-1-1-1 .4477-1 1 .448 1 1 1zm156-21c0 .5523-.448 1-1 1s-1-.4477-1-1 .448-1 1-1 1 .4477 1 1zm-276-16c1.1046 0 2-.8954 2-2s-.8954-2-2-2-2 .8954-2 2 .8954 2 2 2zm11 31c0 1.1046-.8954 2-2 2s-2-.8954-2-2 .8954-2 2-2 2 .8954 2 2zm79-10c1.105 0 2-.8954 2-2s-.895-2-2-2-2 .8954-2 2 .895 2 2 2zm124-15c0 1.1046-.895 2-2 2s-2-.8954-2-2 .895-2 2-2 2 .8954 2 2zm85-8c1.105 0 2-.8954 2-2s-.895-2-2-2-2 .8954-2 2 .895 2 2 2zm22 36c0 1.1046-.895 2-2 2s-2-.8954-2-2 .895-2 2-2 2 .8954 2 2zm-145-72c1.105 0 2-.8954 2-2s-.895-2-2-2-2 .8954-2 2 .895 2 2 2zm90 12c0 1.1046-.895 2-2 2s-2-.8954-2-2 .895-2 2-2 2 .8954 2 2zm-211.5-15c1.381 0 2.5-1.1193 2.5-2.5s-1.119-2.5-2.5-2.5-2.5 1.1193-2.5 2.5 1.119 2.5 2.5 2.5zm110.5 67.5c0 1.3807-1.119 2.5-2.5 2.5s-2.5-1.1193-2.5-2.5 1.119-2.5 2.5-2.5 2.5 1.1193 2.5 2.5zm151.5-61.5c1.381 0 2.5-1.1193 2.5-2.5s-1.119-2.5-2.5-2.5-2.5 1.1193-2.5 2.5 1.119 2.5 2.5 2.5zm-42.5 72.5c0 1.3807-1.119 2.5-2.5 2.5s-2.5-1.1193-2.5-2.5 1.119-2.5 2.5-2.5 2.5 1.1193 2.5 2.5zm-311.5 1.5c1.3807 0 2.5-1.1193 2.5-2.5s-1.1193-2.5-2.5-2.5-2.5 1.1193-2.5 2.5 1.1193 2.5 2.5 2.5zm-11.5-60.5c0 1.3807-1.11929 2.5-2.5 2.5s-2.5-1.1193-2.5-2.5 1.11929-2.5 2.5-2.5 2.5 1.1193 2.5 2.5zm178.5 9.5c1.381 0 2.5-1.1193 2.5-2.5s-1.119-2.5-2.5-2.5-2.5 1.1193-2.5 2.5 1.119 2.5 2.5 2.5z" fill="#fff" fill-rule="evenodd"/></svg>

<svg width="390" height="100" viewBox="0 0 390 100" fill="none" xmlns="http://www.w3.org/2000/svg">
<path fill-rule="evenodd" clip-rule="evenodd" d="M184.804 6C182.628 6.55259 182.302 7 181.902 10C181.502 7 181.176 6.55259 179 6C181.176 5.44741 181.502 5 181.902 2C182.304 5 182.628 5.44741 184.804 6ZM283.804 28C284.604 22 285.256 21.1052 289.609 20C285.256 18.8948 284.607 18 283.804 12C283.004 18 282.353 18.8948 278 20C282.353 21.1052 283.004 22 283.804 28ZM358.256 36C359.256 28.5 360.07 27.3815 365.511 26C360.07 24.6185 359.259 23.5 358.256 16C357.256 23.5 356.441 24.6185 351 26C356.441 27.3815 357.256 28.5 358.256 36ZM42.2556 46C43.2556 38.5 44.0704 37.3815 49.5111 36C44.0704 34.6185 43.2593 33.5 42.2556 26C41.2556 33.5 40.4407 34.6185 35 36C40.4407 37.3815 41.2556 38.5 42.2556 46ZM258.413 38C251.884 39.6578 250.907 41 249.707 50C248.507 41 247.529 39.6578 241 38C247.529 36.3422 248.507 35 249.707 26C250.911 35 251.884 36.3422 258.413 38ZM107.413 67C100.884 68.6578 99.9067 70 98.7067 79C97.5067 70 96.5289 68.6578 90 67C96.5289 65.3422 97.5067 64 98.7067 55C99.9111 64 100.884 65.3422 107.413 67ZM325.511 77C320.07 78.3815 319.256 79.5 318.256 87C317.256 79.5 316.441 78.3815 311 77C316.441 75.6185 317.256 74.5 318.256 67C319.259 74.5 320.07 75.6185 325.511 77ZM194.511 65C189.07 66.3815 188.256 67.5 187.256 75C186.256 67.5 185.441 66.3815 180 65C185.441 63.6185 186.256 62.5 187.256 55C188.259 62.5 189.07 63.6185 194.511 65ZM28.8044 79C29.6044 73 30.2563 72.1052 34.6089 71C30.2563 69.8948 29.6074 69 28.8044 63C28.0044 69 27.3526 69.8948 23 71C27.3526 72.1052 28.0044 73 28.8044 79ZM85.6089 24C81.2563 25.1052 80.6044 26 79.8044 32C79.0044 26 78.3526 25.1052 74 24C78.3526 22.8948 79.0044 22 79.8044 16C80.6074 22 81.2563 22.8948 85.6089 24ZM122.804 93C123.604 87 124.256 86.1052 128.609 85C124.256 83.8948 123.607 83 122.804 77C122.004 83 121.353 83.8948 117 85C121.353 86.1052 122.004 87 122.804 93ZM167.609 47C163.256 48.1052 162.604 49 161.804 55C161.004 49 160.353 48.1052 156 47C160.353 45.8948 161.004 45 161.804 39C162.607 45 163.256 45.8948 167.609 47ZM279.804 95C280.604 89 281.256 88.1052 285.609 87C281.256 85.8948 280.607 85 279.804 79C279.004 85 278.353 85.8948 274 87C278.353 88.1052 279.004 89 279.804 95ZM340.609 50C336.256 51.1052 335.604 52 334.804 58C334.004 52 333.353 51.1052 329 50C333.353 48.8948 334.004 48 334.804 42C335.607 48 336.256 48.8948 340.609 50ZM17.8044 50C15.6281 50.5526 15.3022 51 14.9022 54C14.5022 51 14.1763 50.5526 12 50C14.1763 49.4474 14.5022 49 14.9022 46C15.3037 49 15.6281 49.4474 17.8044 50ZM296.902 73C297.302 70 297.628 69.5526 299.804 69C297.628 68.4474 297.304 68 296.902 65C296.502 68 296.176 68.4474 294 69C296.176 69.5526 296.502 70 296.902 73ZM128.902 62C129.302 59 129.628 58.5526 131.804 58C129.628 57.4474 129.304 57 128.902 54C128.502 57 128.176 57.4474 126 58C128.176 58.5526 128.502 59 128.902 62ZM208.804 22C206.628 22.5526 206.302 23 205.902 26C205.502 23 205.176 22.5526 203 22C205.176 21.4474 205.502 21 205.902 18C206.304 21 206.628 21.4474 208.804 22ZM240.902 79C241.302 76 241.628 75.5526 243.804 75C241.628 74.4474 241.304 74 240.902 71C240.502 74 240.176 74.4474 238 75C240.176 75.5526 240.502 76 240.902 79ZM363.804 81C361.628 81.5526 361.302 82 360.902 85C360.502 82 360.176 81.5526 358 81C360.176 80.4474 360.502 80 360.902 77C361.304 80 361.628 80.4474 363.804 81ZM328.902 12C329.302 9 329.628 8.55259 331.804 8C329.628 7.44741 329.304 7 328.902 4C328.502 7 328.176 7.44741 326 8C328.176 8.55259 328.502 9 328.902 12ZM386.804 61C384.628 61.5526 384.302 62 383.902 65C383.502 62 383.176 61.5526 381 61C383.176 60.4474 383.502 60 383.902 57C384.304 60 384.628 60.4474 386.804 61ZM12 86C12.5523 86 13 85.5523 13 85C13 84.4477 12.5523 84 12 84C11.4477 84 11 84.4477 11 85C11 85.5523 11.4477 86 12 86ZM31 16C31 16.5523 30.5523 17 30 17C29.4477 17 29 16.5523 29 16C29 15.4477 29.4477 15 30 15C30.5523 15 31 15.4477 31 16ZM108 48C108.552 48 109 47.5523 109 47C109 46.4477 108.552 46 108 46C107.448 46 107 46.4477 107 47C107 47.5523 107.448 48 108 48ZM95 41C95 41.5523 94.5523 42 94 42C93.4477 42 93 41.5523 93 41C93 40.4477 93.4477 40 94 40C94.5523 40 95 40.4477 95 41ZM210 49C210.552 49 211 48.5523 211 48C211 47.4477 210.552 47 210 47C209.448 47 209 47.4477 209 48C209 48.5523 209.448 49 210 49ZM153 22C153 22.5523 152.552 23 152 23C151.448 23 151 22.5523 151 22C151 21.4477 151.448 21 152 21C152.552 21 153 21.4477 153 22ZM294 46C294.552 46 295 45.5523 295 45C295 44.4477 294.552 44 294 44C293.448 44 293 44.4477 293 45C293 45.5523 293.448 46 294 46ZM381 41C381 41.5523 380.552 42 380 42C379.448 42 379 41.5523 379 41C379 40.4477 379.448 40 380 40C380.552 40 381 40.4477 381 41ZM180 93C180.552 93 181 92.5523 181 92C181 91.4477 180.552 91 180 91C179.448 91 179 91.4477 179 92C179 92.5523 179.448 93 180 93ZM336 72C336 72.5523 335.552 73 335 73C334.448 73 334 72.5523 334 72C334 71.4477 334.448 71 335 71C335.552 71 336 71.4477 336 72ZM60 56C61.1046 56 62 55.1046 62 54C62 52.8954 61.1046 52 60 52C58.8954 52 58 52.8954 58 54C58 55.1046 58.8954 56 60 56ZM71 87C71 88.1046 70.1046 89 69 89C67.8954 89 67 88.1046 67 87C67 85.8954 67.8954 85 69 85C70.1046 85 71 85.8954 71 87ZM150 77C151.105 77 152 76.1046 152 75C152 73.8954 151.105 73 150 73C148.895 73 148 73.8954 148 75C148 76.1046 148.895 77 150 77ZM274 62C274 63.1046 273.105 64 272 64C270.895 64 270 63.1046 270 62C270 60.8954 270.895 60 272 60C273.105 60 274 60.8954 274 62ZM359 54C360.105 54 361 53.1046 361 52C361 50.8954 360.105 50 359 50C357.895 50 357 50.8954 357 52C357 53.1046 357.895 54 359 54ZM381 90C381 91.1046 380.105 92 379 92C377.895 92 377 91.1046 377 90C377 88.8954 377.895 88 379 88C380.105 88 381 88.8954 381 90ZM236 18C237.105 18 238 17.1046 238 16C238 14.8954 237.105 14 236 14C234.895 14 234 14.8954 234 16C234 17.1046 234.895 18 236 18ZM326 30C326 31.1046 325.105 32 324 32C322.895 32 322 31.1046 322 30C322 28.8954 322.895 28 324 28C325.105 28 326 28.8954 326 30ZM114.5 15C115.881 15 117 13.8807 117 12.5C117 11.1193 115.881 10 114.5 10C113.119 10 112 11.1193 112 12.5C112 13.8807 113.119 15 114.5 15ZM225 82.5C225 83.8807 223.881 85 222.5 85C221.119 85 220 83.8807 220 82.5C220 81.1193 221.119 80 222.5 80C223.881 80 225 81.1193 225 82.5ZM376.5 21C377.881 21 379 19.8807 379 18.5C379 17.1193 377.881 16 376.5 16C375.119 16 374 17.1193 374 18.5C374 19.8807 375.119 21 376.5 21ZM334 93.5C334 94.8807 332.881 96 331.5 96C330.119 96 329 94.8807 329 93.5C329 92.1193 330.119 91 331.5 91C332.881 91 334 92.1193 334 93.5ZM22.5 95C23.8807 95 25 93.8807 25 92.5C25 91.1193 23.8807 90 22.5 90C21.1193 90 20 91.1193 20 92.5C20 93.8807 21.1193 95 22.5 95ZM11 34.5C11 35.8807 9.88071 37 8.5 37C7.11929 37 6 35.8807 6 34.5C6 33.1193 7.11929 32 8.5 32C9.88071 32 11 33.1193 11 34.5ZM189.5 44C190.881 44 192 42.8807 192 41.5C192 40.1193 190.881 39 189.5 39C188.119 39 187 40.1193 187 41.5C187 42.8807 188.119 44 189.5 44Z" fill="white"/>
</svg>
